_includes/icons/color-monitor.svg

<svg fill="#666" height="50" viewBox="0 0 48 48" width="50" xmlns="http://www.w3.org/2000/svg"><path d="m6 8h36v26h-36z" fill="#546e7a"/><path d="m8 10h32v21h-32z" fill="#bbdefb"/><g fill="#455a64"><path d="m21 34h6v3h-6z"/><path d="m33 37c-2 0-16 0-18 0s-2 2-2 2v1h22v-1s0-2-2-2z"/></g></svg>

<svg xmlns="http://www.w3.org/2000/svg" viewBox="0 0 48 48" width="50" height="50" fill="#666"><path d="M 6 8 L 42 8 L 42 34 L 6 34 Z" fill="#546e7a"/><path d="M 8 10 L 40 10 L 40 31 L 8 31 Z" fill="#bbdefb"/><path d="M 21 34 L 27 34 L 27 37 L 21 37 Z" fill="#455a64"/><path d="M 33 37 C 31 37 17 37 15 37 C 13 37 13 39 13 39 L 13 40 L 35 40 L 35 39 C 35 39 35 37 33 37 Z" fill="#455a64"/></svg>
